static/img/kroki/7775ce3bdc5a8992c2b50c63843e9d75.svg

<?xml version="1.0" encoding="us-ascii" standalone="no"?><svg xmlns="http://www.w3.org/2000/svg" xmlns:xlink="http://www.w3.org/1999/xlink" contentStyleType="text/css" height="152px" preserveAspectRatio="none" style="width:422px;height:152px;" version="1.1" viewBox="0 0 422 152" width="422px" zoomAndPan="magnify"><defs/><g><!--class azure_compute_capacity_reservation_group--><g id="elem_azure_compute_capacity_reservation_group"><rect codeLine="23" fill="#3D176E" height="39.7891" id="azure_compute_capacity_reservation_group" rx="2.5" ry="2.5" style="stroke:#000D19;stroke-width:0.5;" width="408" x="7" y="7"/><ellipse cx="22" cy="26.8945" fill="#ADD1B2" rx="11" ry="11" style="stroke:#181818;stroke-width:1.0;"/><path d="M24.9688,32.5352 Q24.3906,32.832 23.75,32.9727 Q23.1094,33.1289 22.4063,33.1289 Q19.9063,33.1289 18.5781,31.4883 Q17.2656,29.832 17.2656,26.707 Q17.2656,23.582 18.5781,21.9258 Q19.9063,20.2695 22.4063,20.2695 Q23.1094,20.2695 23.75,20.4258 Q24.4063,20.582 24.9688,20.8789 L24.9688,23.5977 Q24.3438,23.0195 23.75,22.7539 Q23.1563,22.4727 22.5313,22.4727 Q21.1875,22.4727 20.5,23.5508 Q19.8125,24.6133 19.8125,26.707 Q19.8125,28.8008 20.5,29.8789 Q21.1875,30.9414 22.5313,30.9414 Q23.1563,30.9414 23.75,30.6758 Q24.3438,30.3945 24.9688,29.8164 L24.9688,32.5352 Z " fill="#000000"/><text fill="#D9B8FF" font-family="Helvetica" font-size="17" lengthAdjust="spacing" textLength="366" x="41" y="32.7798">azure_compute_capacity_reservation_group</text></g><!--class azure_compute_virtual_machine_base--><g id="elem_azure_compute_virtual_machine_base"><rect codeLine="26" fill="#3D176E" height="39.7891" id="azure_compute_virtual_machine_base" rx="2.5" ry="2.5" style="stroke:#000D19;stroke-width:0.5;" width="362" x="30" y="106.79"/><ellipse cx="45" cy="126.6845" fill="#ADD1B2" rx="11" ry="11" style="stroke:#181818;stroke-width:1.0;"/><path d="M47.9688,132.3252 Q47.3906,132.622 46.75,132.7627 Q46.1094,132.9189 45.4063,132.9189 Q42.9063,132.9189 41.5781,131.2783 Q40.2656,129.622 40.2656,126.497 Q40.2656,123.372 41.5781,121.7158 Q42.9063,120.0595 45.4063,120.0595 Q46.1094,120.0595 46.75,120.2158 Q47.4063,120.372 47.9688,120.6689 L47.9688,123.3877 Q47.3438,122.8095 46.75,122.5439 Q46.1563,122.2627 45.5313,122.2627 Q44.1875,122.2627 43.5,123.3408 Q42.8125,124.4033 42.8125,126.497 Q42.8125,128.5908 43.5,129.6689 Q44.1875,130.7314 45.5313,130.7314 Q46.1563,130.7314 46.75,130.4658 Q47.3438,130.1845 47.9688,129.6064 L47.9688,132.3252 Z " fill="#000000"/><text fill="#D9B8FF" font-family="Helvetica" font-size="17" lengthAdjust="spacing" textLength="320" x="64" y="132.5698">azure_compute_virtual_machine_base</text></g><!--link azure_compute_capacity_reservation_group to azure_compute_virtual_machine_base--><g id="link_azure_compute_capacity_reservation_group_azure_compute_virtual_machine_base"><path codeLine="29" d="M211,47.22 C211,64.36 211,83.27 211,100.41 " fill="none" id="azure_compute_capacity_reservation_group-to-azure_compute_virtual_machine_base" style="stroke:#1A83AF;stroke-width:2.0;"/><polygon fill="#1A83AF" points="211,106.41,215,97.41,211,101.41,207,97.41,211,106.41" style="stroke:#1A83AF;stroke-width:2.0;"/></g><!--SRC=[ZP5FQy904CNl-HGBdWLJQTLB8HMalKYflPKI9hkpPZ6x6sOdYfP-zvhQbZJnttNURzwycScDGe6svAsmQ3Ea48MLSIKGM94G-StK5vv4JslGmr5Rd7d75u4vM1IFMAoHZOGsyPeRkN8OWhXfI0yWLqlobLC7UoPmOI-XumOrBI24X9bCLZ4smgX9DjQwJRPDUqCLZ-wmWtbII3_8O31GyQIDN1nrTky_Oc5sAEBcqUQUiHEpC-AREfko9XeXEul-wYSpFeDInYt5RQFsSiX43kbVVP63yfkQrb24vfZ0IEXvM-AqinLEnagFZi9Ff-18rgSJiAi8K-bjkNzxAg44QNYR4WQaDR3nBgsxI_4HHPz7UzQ6k88YjI1pup3D8E21ljgx_zQBa_4mcRttxwzmZxu0]--></g></svg>

<svg xmlns="http://www.w3.org/2000/svg" width="422" height="152" viewBox="0 0 422 152"><rect width="408" height="39.789" x="7" y="7" fill="#3D176E" rx="2.5" ry="2.5" style="stroke:#000d19;stroke-width:.5"/><circle cx="22" cy="26.895" r="11" fill="#ADD1B2" style="stroke:#181818;stroke-width:1"/><path d="M24.969 32.535q-.578.297-1.219.438-.64.156-1.344.156-2.5 0-3.828-1.64-1.312-1.657-1.312-4.782t1.312-4.781q1.328-1.656 3.828-1.656.703 0 1.344.156.656.156 1.219.453v2.719q-.625-.578-1.219-.844-.594-.281-1.219-.281-1.343 0-2.031 1.078-.687 1.062-.687 3.156t.687 3.172q.688 1.062 2.031 1.062.625 0 1.219-.265.594-.281 1.219-.86z"/><text x="41" y="32.78" fill="#D9B8FF" font-family="Helvetica" font-size="17" textLength="366">azure_compute_capacity_reservation_group</text><rect width="362" height="39.789" x="30" y="106.79" fill="#3D176E" rx="2.5" ry="2.5" style="stroke:#000d19;stroke-width:.5"/><circle cx="45" cy="126.684" r="11" fill="#ADD1B2" style="stroke:#181818;stroke-width:1"/><path d="M47.969 132.325q-.578.297-1.219.438-.64.156-1.344.156-2.5 0-3.828-1.64-1.312-1.657-1.312-4.782t1.312-4.781q1.328-1.656 3.828-1.656.703 0 1.344.156.656.156 1.219.453v2.719q-.625-.579-1.219-.844-.594-.281-1.219-.281-1.343 0-2.031 1.078-.687 1.062-.687 3.156t.687 3.172q.688 1.062 2.031 1.062.625 0 1.219-.265.594-.281 1.219-.86z"/><text x="64" y="132.57" fill="#D9B8FF" font-family="Helvetica" font-size="17" textLength="320">azure_compute_virtual_machine_base</text><path fill="none" d="M211 47.22v53.19" style="stroke:#1a83af;stroke-width:2"/><path fill="#1A83AF" d="m211 106.41 4-9-4 4-4-4z" style="stroke:#1a83af;stroke-width:2"/></svg>
